!!!ONB: MCCC : IJH0439_03 : Extracted Monophonic Melody
!!!COM: Haydn, Joseph
!!!OPR: String Quartet in E major
!!!OMV: 3
!!!SCT: Hob.III:25 ; Op.17 No.1
!!!ODT: 1771///
**kern
*thru
*k[f#]
*e:
*clefG
*M6/8
*MM60
=1
4.ee
4b
32a
32g
32f#
32e
=2
8.d#
16e
8d#
8d#
4r
=3
4.ff#
8B
8a
16g
16f#
=4
8.g
16a
8b
8.b
16cc
8b
=5
2ee[
16ee]
16dd#
8ee
=6
8.dd#
16ee
8ff#
4.b
=7
2cc[
16cc]
16aa
8cc
=8
2b[
16b]
16ee
8e
=9
8.f
16g
8f
8cc
8a
8f
=10
8.e
16f#
8d#
8e
4r
=11
16r
16aa
16ccc
16aa
16ee
16ccc
16dd
16ddd
16aa
16ff#
16dd
16ddd
=12
16r
16gg
16bb
16gg
16dd
16bb
16cc
16ccc
16gg
16ee
16cc
16ccc
=13
16r
16ff#
16aa
16ff#
16cc
16aa
16b
16bb
16ff#
16dd#
16b
16bb
=14
16r
16ee
16gg
16ee
16b
16ee
16g
16b
16e
16g
16B
16e
=15
16r
16ff
16aa
16ff
16cc
16ff
16a
16cc
16f
16a
16c
16f
=16
8.e
16f#
8d#
8e
4r
=17
4.ee
4b
32a
32g
32f#
32e
=18
8.d
16e
8d
8d
4r
=19
4dd
32cc
32b
32a
32g
8.cc
16dd
8cc
=20
8.b
16cc
8b
8.a
16b
8a
=21
4dd
24gg
24dd
24b
16dd
16cc
8r
24aa
24ff#
24cc
=22
16cc
16b
8r
24dd
24b
24g
16g
16f#
8r
24a
24f#
24d
=23
8.dd
16ee
8dd
4gg
8ff
=24
8.ee
16ff#
8ee
4aa
8cc
=25
8.dd
16ee
8dd
4gg
8b
=26
8.cc
16dd
8cc
4aa
8cc
=27
8.b
16cc
8b
4gg
8cc#
=28
4dd
8ff#
8dd
4r
=29
4.gg
4dd
32cc
32b
32a
32g
=30
8.f#
16g
8f#
4cc
8b
=31
2ee[
16ee]
16dd
8cc
=32
8.b
16cc
8a
8g
4r
=33
4.gg
4dd
32cc
32b
32a
32g
=34
8.cc#
16dd
8cc#
8cc#
8dd
8cc
=35
4b
8gg
8ee
8cc
8a
=36
4dd
8cc
8b
4r
=37
4dd
8gg
8ee
8cc
8a
=38
4dd
8f#
8g
8r
16cc
16f#
=39
8g
8r
16cc
16f#
8g
24r
24gg
24dd
24cc
24a
24f#
=40
8g
8g
8g
8g
4r
=41
4.bb
4ff#
32ee
32dd#
32cc#
32b
=42
8.gg
16aa
8gg
8ff#
4r
=43
8.g
16a
8g
8f#
4r
=44
8.cc
16dd
8cc
8b
4r
=45
8.dd
16ee
8dd
8cc#
4r
=46
4.ff#
4.ee#
=47
4.ee
4.dd#
=48
4.dd
4.cc#
=49
4b
8dd
8.cc#
16ee
8a#
=50
4b
8dd
8.cc#
16ee
8a#
=51
2.b
=52
2cc[
16cc]
16b
8a
=53
4.ee
4b
32a
32g
32f#
32e
=54
8.d#
16e
8d#
8d#
4r
=55
4.ff#
4B
16a
32g
32f#
=56
8.g
16a
8b
4.b
=57
4..cc
16ff#
16aa
16ff#
16cc
16ff#
=58
16b
16bb
16r
8.r
16r
16ee
16gg
16ee
16b
16ee
=59
16a
16aa
16r
8.r
16r
16dd#
16ff#
16dd#
16aa
16a
=60
16g
16gg
16r
8.r
16r
16g
16f#
16e
16d#
16e
=61
16r
16A#
16B
16d#
16f#
16a#
8b
4r
=62
4.ee
4b
32a
32g
32f#
32e
=63
8.a
16b
8a
4a
8g
=64
2cc[
16cc]
16b
8a
=65
8.g
16a
8f#
8e
4r
=66
4.ee
4b
32a
32g
32f#
32e
=67
8.a#
16b
8a#
4.a#
=68
8.a#
16cc#
8a#
4.a#[
=69
8a#]
8b
8b
4.a
=70
4g
8ee
8cc
8a
8f#
=71
4b
8a
8g
4r
=72
4b
8ee
8cc
8a
8f#
=73
4b
8d#
8e
8r
16a
16d#
=74
8e
8r
16a
16d#
8e
24r
24ee
24b
24a
24f#
24d#
=75
8e
8e
8e
8e
4r
==
*-
